X: 43
T: Maintes femmes
N: Derived from Bus3039-Maintes_femmes.krn
C: Antoine Busnoys
%%abc-version 2.0
%%abcx-abcm2ps-target-version 5.9.1 (29 Sep 2008)
%%abc-creator hum2abc beta
%%abcx-conversion-date 2019/02/16 20:26:07
%%abc-edited-by Jesse Rodin
%%abc-edited-by Chris Gage 05-13-2015
%%abcx-initial-encoding-date 2015/10/29/
%%humdrum-veritas 879954737
%%humdrum-veritas-data 2138832791
%%linebreak <none>
%%barnumbers 0
L: 1/4
M: 3/1
Q: 1/2=120
%%staves [1 2 3 4]
V: 1 clef=treble
V: 2 clef=treble-8
V: 3 clef=bass
V: 4 clef=bass
K: C
[V:1] D6F3GA2 | 
[V:2] A4B2A2d3c | 
[V:3] D,8D,4 | 
[V:4] z12 | 
[V:1] D2CB,A,2D3EF2 | 
[V:2] A4z4A4 | 
[V:3] F,8F,4 | 
[V:4] D,6F,3E,D,2 | 
[V:1] G2E4D4^C2 | 
[V:2] G2c3BG2A4 | 
[V:3] E,8E,4 | 
[V:4] E,2C,4B,,2A,,4 | 
[V:1] D4z4A4 | 
[V:2] F3DF3GA4 | 
[V:3] D,8D,4 | 
[V:4] z4A,4F,3D, | 
[V:1] A6F2A2B2 | 
[V:2] D4z4z4 | 
[V:3] D,8D,4 | 
[V:4] F,2G,2A,4D,4 | 
[V:1] c2A3GFEF2ED | 
[V:2] z4z4d4 | 
[V:3] A,8A,4 | 
[V:4] C,2F,3E,D,C,D,2C,B,, | 
[V:1] C2F3GA3E^F2 | 
[V:2] e2c2d2e2d4 | 
[V:3] A,8A,4 | 
[V:4] A,,4z4D,4 | 
[V:1] G4z2D2E2E2 | 
[V:2] B2G2B2d2c4 | 
[V:3] G,8G,4 | 
[V:4] E,2E,3D,B,,2C,4 | 
[V:1] F2D4A4GF | 
[V:2] B2A4F2A2B2 | 
[V:3] D,8D,4 | 
[V:4] D,4z4z4 | 
[V:1] E2c3BA3GF2 | 
[V:2] c4z2F3GA2 | 
[V:3] A,8A,4 | 
[V:4] A,,6D,3E,F,2 | 
[V:1] E2G4F2D2E2 | 
[V:2] B2c4d4c2 | 
[V:3] G,8G,4 | 
[V:4] G,2E,4D,2B,,2C,2 | 
[V:1] F4D2F3ED2 | 
[V:2] A2B3cd3cAB | 
[V:3] F,8F,4 | 
[V:4] D,4D,2B,,3C,D,2 | 
[V:1] C2E3DD3B,^C2 | 
[V:2] c2BAG3FA4 | 
[V:3] E,8E,4 | 
[V:4] A,,4z4A,,4 | 
[V:1] D4z4z4 | 
[V:2] z4A4D2F2- | 
[V:3] D,8D,4 | 
[V:4] D,2F,4G,2A,4 | 
[V:1] A4F2D3EF2- | 
[V:2] F2G2A4D4 | 
[V:3] D,8D,4 | 
[V:4] D,4z4B,,4 | 
[V:1] FEC2E4F4 | 
[V:2] F2E4A4F2 | 
[V:3] A,8A,4 | 
[V:4] A,,4C,4D,4 | 
[V:1] G2C3DE3FG2 | 
[V:2] E2G3FEDC4 | 
[V:3] E,8E,4 | 
[V:4] E,4C,2G,3F,E,2 | 
[V:1] F2A3GFED3C | 
[V:2] z2D4A4B2 | 
[V:3] F,8F,4 | 
[V:4] D,4z4D,4 | 
[V:1] E6G3FE2 | 
[V:2] c2e4d2B2c2 | 
[V:3] E,8E,4 | 
[V:4] A,,2C,4B,,2G,,2A,,2 | 
[V:1] D6E3DE2 | 
[V:2] d4z4G4 | 
[V:3] G,8G,4 | 
[V:4] B,,6C,3B,,C,2 | 
[V:1] F2D3CA,2B,2D2 | 
[V:2] F2G4A2G2FG | 
[V:3] D,8D,4 | 
[V:4] D,2_B,,3A,,F,,2G,,2B,,2 | 
[V:1] C2E3DB,2^C3B, | 
[V:2] A3GA2_B2A4 | 
[V:3] E,8E,4 | 
[V:4] A,,2C,3_B,,G,,2A,,4 | 
[V:1] D12- | 
[V:2] z2A4F2_B4 | 
[V:3] D,12- | 
[V:4] D,12- | 
[V:1] D12 ]|:  
[V:2] A12 ]|:  
[V:3] D,12 ]|:  
[V:4] D,12 ]|:  
[V:1]  [K:C] [K:clef=treble][M:2/1]C8 | 
[V:2]  [K:C] [K:clef=treble-8][M:2/1]E8 | 
[V:3]  [K:C] [K:clef=bass][M:2/1]A,8 | 
[V:4]  [K:C] [K:clef=bass][M:2/1]A,,8 | 
[V:1] C4C4 | 
[V:2] A4A4 | 
[V:3] E,8 | 
[V:4] A,,4A,,4 | 
[V:1] D8- | 
[V:2] F4_B4- | 
[V:3] D,8 | 
[V:4] _B,,8- | 
[V:1] D4E4 | 
[V:2] B2A2G4 | 
[V:3] G,8 | 
[V:4] B,,4C,4 | 
[V:1] F6ED | 
[V:2] F8 | 
[V:3] D,8 | 
[V:4] D,4_B,,4 | 
[V:1] E4E4 | 
[V:2] z4A4- | 
[V:3] C,8 | 
[V:4] A,,8 | 
[V:1] C6D2 | 
[V:2] A2B2c4- | 
[V:3] F,8 | 
[V:4] z4A,4- | 
[V:1] E6D2 | 
[V:2] c2B2G4- | 
[V:3] C,8 | 
[V:4] A,2G,2E,4- | 
[V:1] B,6C2 | 
[V:2] G2A2B4- | 
[V:3] E,8 | 
[V:4] E,2F,2G,4- | 
[V:1] D6C2 | 
[V:2] B2A2F4- | 
[V:3] B,,8 | 
[V:4] G,2F,2D,4- | 
[V:1] A,6B,2 | 
[V:2] F2G2A4- | 
[V:3] D,8 | 
[V:4] D,2E,2F,4- | 
[V:1] C8 | 
[V:2] A2G2E4 | 
[V:3] A,,8 | 
[V:4] F,2E,2C,4- | 
[V:1] z4A,4- | 
[V:2] A8 | 
[V:3] A,,8 | 
[V:4] C,4F,4- | 
[V:1] A,4D4- | 
[V:2] A8 | 
[V:3] D,8 | 
[V:4] F,4D,4- | 
[V:1] D4B,4- | 
[V:2] d8 | 
[V:3] B,,8 | 
[V:4] D,4G,4- | 
[V:1] B,4E4- | 
[V:2] B8 | 
[V:3] E,8 | 
[V:4] G,4E,4- | 
[V:1] E4C4- | 
[V:2] e8 | 
[V:3] C,8 | 
[V:4] E,4A,4- | 
[V:1] C4F4- | 
[V:2] c8 | 
[V:3] F,8 | 
[V:4] A,4F,4 | 
[V:1] F4E4 | 
[V:2] z4c4 | 
[V:3] C,8 | 
[V:4] G,8 | 
[V:1] F8 | 
[V:2] A4A4 | 
[V:3] D,8 | 
[V:4] F,8 | 
[V:1] z4G4 | 
[V:2] B4B4 | 
[V:3] G,8 | 
[V:4] E,8 | 
[V:1] A2A3GF2 | 
[V:2] A2F3ED2 | 
[V:3] D,8 | 
[V:4] F,2D,3E,F,2 | 
[V:1] G2E3DCB, | 
[V:2] C2G4A2 | 
[V:3] E,8 | 
[V:4] E,2C,3B,,C,2 | 
[V:1] A,2D4^C2 | 
[V:2] F2D2E4 | 
[V:3] A,8- | 
[V:4] D,4A,,4 | 
[V:1] D8 :|]  
[V:2] D8 :|]  
[V:3] A,8 :|]  
[V:4] [D,8A,8] :|]  



